X:38
T:Polonäs
T:ur Johan Erik Carlssons notbok (nr 38)
B:Johan Erik Carlssons notbok, nr 38
B:http://www.smus.se/earkiv/fmk/browselarge.php?lang=sw&katalogid=MMD+67&bildnr=00021
O:Snavlunda, Närke / Bona, Östergötland
R:Slängpolska
Z:Nils Liberg
M:3/4
L:1/16
K:C
(Gc)(ec) (Gc)(ec) (Gc)(ec) | d2dB G2GE C2CE | (Gc)(ec) (Gc)(ec) (Gc)(ec) | d2dB G2GE c4 ::|
(Gc)(gc) (Gc)(gc) (Gc)(gc) | a2af d2dB G2GE | (Gc)(gc) (Gc)(gc) (Gc)(gc) | a2af d2dB c4 :|

